X:1
T:The Keach in the Creel
M:2/4
L:1/8
K:G
 z2 z D| B,D DD| ED DD| B,D GB| A2 GA| B/2B/2 GA F| GG C E/2E/2| D/2D/2 DE F|\
 G2 D3/2 C/2| B,D D2| B,D D2| G/2F/2 G/2A/2 BA| G3 z|
